icons/itsalive.svg

<?xml version="1.0" encoding="UTF-8"?>
<svg width="512px" height="133px" viewBox="0 0 512 133" version="1.1" xmlns="http://www.w3.org/2000/svg" xmlns:xlink="http://www.w3.org/1999/xlink" preserveAspectRatio="xMidYMid">
    <g>
        <path d="M166.645211,38.2478169 C165.031483,36.6173722 164.224631,34.653457 164.224631,32.3560124 C164.224631,30.0585676 165.031483,28.0946524 166.645211,26.4642077 C168.258939,24.8337631 170.247923,24.0185529 172.612221,24.0185529 C174.901463,24.0185529 176.862301,24.8337631 178.494793,26.4642077 C180.127285,28.0946524 180.943519,30.0585676 180.943519,32.3560124 C180.943519,34.653457 180.127285,36.6081086 178.494793,38.2200254 C176.862301,39.8319423 174.901463,40.6378885 172.612221,40.6378885 C170.247923,40.6378885 168.258939,39.8412061 166.645211,38.2478169 Z M165.012727,105.280991 L165.012727,52.9217455 C165.012727,52.440023 165.181603,52.0324179 165.51936,51.6989181 C165.857117,51.3654179 166.269925,51.1986706 166.757796,51.1986706 L178.522939,51.1986706 C179.048339,51.1986706 179.470529,51.3654179 179.789522,51.6989181 C180.108514,52.0324179 180.268008,52.440023 180.268008,52.9217455 L180.268008,105.280991 C180.268008,105.762713 180.108514,106.170318 179.789522,106.503817 C179.470529,106.837318 179.048339,107.004065 178.522939,107.004065 L166.757796,107.004065 C166.269925,107.004065 165.857117,106.837318 165.51936,106.503817 C165.181603,106.170318 165.012727,105.762713 165.012727,105.280991 Z M188.374135,61.8150357 L188.374135,52.9217455 C188.374135,52.440023 188.533629,52.0324179 188.852622,51.6989181 C189.171615,51.3654179 189.593804,51.1986706 190.119204,51.1986706 L198.169039,51.1986706 L198.169039,35.8577453 C198.169039,35.3389673 198.328533,34.9220987 198.647525,34.6071263 C198.966518,34.2921541 199.388708,34.1346704 199.914108,34.1346704 L211.679251,34.1346704 C212.167122,34.1346704 212.57993,34.2921541 212.917687,34.6071263 C213.255444,34.9220987 213.42432,35.3389673 213.42432,35.8577453 L213.42432,51.1986706 L221.474154,51.1986706 C221.962026,51.1986706 222.374833,51.3654179 222.712591,51.6989181 C223.050347,52.0324179 223.219224,52.440023 223.219224,52.9217455 L223.219224,61.8150357 C223.219224,62.2967577 223.050347,62.7043628 222.712591,63.0378626 C222.374833,63.3713628 221.962026,63.5381101 221.474154,63.5381101 L213.42432,63.5381101 L213.42432,105.280991 C213.42432,105.762713 213.255444,106.170318 212.917687,106.503817 C212.57993,106.837318 212.167122,107.004065 211.679251,107.004065 L199.914108,107.004065 C199.388708,107.004065 198.966518,106.837318 198.647525,106.503817 C198.328533,106.170318 198.169039,105.762713 198.169039,105.280991 L198.169039,63.5381101 L190.119204,63.5381101 C189.593804,63.5381101 189.171615,63.3713628 188.852622,63.0378626 C188.533629,62.7043628 188.374135,62.2967577 188.374135,61.8150357 Z M229.355111,99.1668536 C229.054883,98.8333534 228.914153,98.4813307 228.932917,98.1107753 C228.951681,97.7402194 229.092411,97.3326147 229.355111,96.8879479 L233.858515,90.607062 C234.458972,89.828895 235.303352,89.8659502 236.39168,90.7182277 C241.720735,94.1273393 246.411733,95.8318695 250.464817,95.8318695 C252.566416,95.8318695 254.302086,95.4613196 255.671878,94.7202083 C257.041672,93.9790974 257.726557,92.7933368 257.726557,91.1628924 C257.726557,90.1253369 257.332513,89.1896977 256.544412,88.3559475 C255.756313,87.5221976 254.724293,86.8274162 253.448323,86.2715828 C252.172351,85.7157495 250.718142,85.1321334 249.08565,84.5207163 C247.453158,83.9092996 245.783162,83.3256831 244.075613,82.7698502 C242.368064,82.2140163 240.698068,81.4636525 239.065576,80.5187361 C237.433084,79.5738192 235.978874,78.5362791 234.702903,77.4060843 C233.426933,76.2758899 232.394913,74.8122171 231.606813,73.0150223 C230.818713,71.2178275 230.42467,69.1890663 230.42467,66.9286771 C230.42467,61.7779544 232.357361,57.6648485 236.222802,54.5892375 C240.088243,51.5136257 244.685422,49.9758432 250.014477,49.9758432 C253.692275,49.9758432 257.257435,50.716943 260.710062,52.1991656 C264.162689,53.6813883 267.052344,55.7564684 269.379115,58.4244687 C270.017098,59.16558 269.979571,59.9622623 269.266528,60.8145406 L264.87571,66.4840128 C264.275253,67.2621794 263.430872,67.2251242 262.342546,66.3728467 C259.828131,64.7794575 257.829767,63.6585433 256.347389,63.0100714 C254.865011,62.361599 253.185633,62.0373676 251.309206,62.0373676 C249.507835,62.0373676 248.016097,62.4820279 246.833948,63.3713611 C245.651798,64.2606947 245.060732,65.4093996 245.060732,66.8175109 C245.060732,68.0403447 245.56736,69.0871483 246.580631,69.9579539 C247.593902,70.8287598 248.907382,71.5513324 250.52111,72.1256934 C252.134838,72.7000544 253.917417,73.2744073 255.868902,73.8487683 C257.820387,74.4231298 259.762461,75.145702 261.695181,76.0165079 C263.6279,76.8873134 265.401098,77.9248535 267.014827,79.1291592 C268.628555,80.333465 269.942033,81.9824127 270.955305,84.076052 C271.968577,86.1696914 272.475205,88.6060578 272.475205,91.3852247 C272.475205,94.8313916 271.386891,97.8884297 269.210237,100.55643 C267.03358,103.22443 264.331564,105.216137 261.104109,106.531609 C257.876653,107.847082 254.48037,108.504808 250.915157,108.504808 C246.411731,108.504808 242.255506,107.59696 238.446358,105.781238 C234.637209,103.965515 231.606824,101.760743 229.355111,99.1668536 Z M282.270108,93.9976285 C279.943337,89.5139057 278.779969,84.5855901 278.779969,79.2125342 C278.779969,73.8394779 279.952719,68.9204258 282.298253,64.4552307 C284.643788,59.990036 287.908725,56.4605467 292.093156,53.8666573 C296.27759,51.2727683 300.959209,49.9758432 306.138148,49.9758432 C312.705647,49.9758432 318.428664,52.6993859 323.307375,58.1465535 L323.645131,52.9217455 C323.757717,51.7730231 324.3394,51.1986706 325.390201,51.1986706 L335.9732,51.1986706 C336.461072,51.1986706 336.873879,51.3654179 337.211635,51.6989181 C337.549393,52.0324179 337.718268,52.440023 337.718268,52.9217455 L337.718268,105.280991 C337.718268,105.762713 337.549393,106.170318 337.211635,106.503817 C336.873879,106.837318 336.461072,107.004065 335.9732,107.004065 L325.390201,107.004065 C324.3394,107.004065 323.757717,106.429713 323.645131,105.280991 L323.194791,100.500847 C318.578778,105.836848 312.893288,108.504808 306.138148,108.504808 C300.959209,108.504808 296.27759,107.198619 292.093156,104.586202 C287.908725,101.973785 284.634406,98.4442955 282.270108,93.9976285 Z M293.472326,79.101368 C293.472326,83.6221464 294.842096,87.3739651 297.58168,90.356938 C300.321266,93.3399105 303.792606,94.8313745 307.995803,94.8313745 C312.086417,94.8313745 315.510844,93.284328 318.269194,90.190189 C321.027541,87.0960495 322.406696,83.3998128 322.406696,79.101368 C322.406696,74.8399785 321.027541,71.1993242 318.269194,68.1792961 C315.510844,65.159268 312.086417,63.6492763 307.995803,63.6492763 C303.792606,63.6492763 300.321266,65.1129491 297.58168,68.0403383 C294.842096,70.9677275 293.472326,74.6547005 293.472326,79.101368 Z M348.076098,105.280991 L348.076098,25.6304616 C348.076098,25.1116839 348.244973,24.6948151 348.582731,24.3798428 C348.920489,24.0648706 349.333296,23.9073868 349.821166,23.9073868 L361.586311,23.9073868 C362.07418,23.9073868 362.477606,24.0648706 362.7966,24.3798428 C363.115592,24.6948151 363.275086,25.1116839 363.275086,25.6304616 L363.275086,105.280991 C363.275086,105.799768 363.115592,106.216637 362.7966,106.531609 C362.477606,106.846582 362.07418,107.004065 361.586311,107.004065 L349.821166,107.004065 C349.333296,107.004065 348.920489,106.837318 348.582731,106.503817 C348.244973,106.170318 348.076098,105.762713 348.076098,105.280991 Z M375.603155,38.2478169 C373.989427,36.6173722 373.182575,34.653457 373.182575,32.3560124 C373.182575,30.0585676 373.989427,28.0946524 375.603155,26.4642077 C377.216883,24.8337631 379.205865,24.0185529 381.570166,24.0185529 C383.859407,24.0185529 385.820244,24.8337631 387.452736,26.4642077 C389.085228,28.0946524 389.901463,30.0585676 389.901463,32.3560124 C389.901463,34.653457 389.085228,36.6081086 387.452736,38.2200254 C385.820244,39.8319423 383.859407,40.6378885 381.570166,40.6378885 C379.205865,40.6378885 377.216883,39.8412061 375.603155,38.2478169 Z M373.970671,105.280991 L373.970671,52.9217455 C373.970671,52.440023 374.139546,52.0324179 374.477304,51.6989181 C374.815062,51.3654179 375.22787,51.1986706 375.715739,51.1986706 L387.480881,51.1986706 C388.006283,51.1986706 388.428473,51.3654179 388.747464,51.6989181 C389.066459,52.0324179 389.225952,52.440023 389.225952,52.9217455 L389.225952,105.280991 C389.225952,105.762713 389.066459,106.170318 388.747464,106.503817 C388.428473,106.837318 388.006283,107.004065 387.480881,107.004065 L375.715739,107.004065 C375.22787,107.004065 374.815062,106.837318 374.477304,106.503817 C374.139546,106.170318 373.970671,105.762713 373.970671,105.280991 Z M396.994323,53.1440778 C396.881738,52.8105776 396.825445,52.532665 396.825445,52.3103318 C396.825445,51.5692205 397.350839,51.1986706 398.401638,51.1986706 L410.279365,51.1986706 C411.292636,51.1986706 411.968139,51.6618582 412.305897,52.588247 L426.153863,89.4954007 L439.889244,52.588247 C440.227003,51.6618582 440.921269,51.1986706 441.972072,51.1986706 L453.849797,51.1986706 C454.863069,51.1986706 455.369699,51.5692205 455.369699,52.3103318 C455.369699,52.5697207 455.313408,52.8476333 455.20082,53.1440778 L434.147409,105.614489 C433.80965,106.540878 433.115384,107.004065 432.06458,107.004065 L420.299439,107.004065 C419.24864,107.004065 418.554371,106.540878 418.216615,105.614489 L396.994323,53.1440778 Z M456.664427,79.2125342 C456.664427,75.1734778 457.386839,71.3475486 458.831689,67.7346319 C460.276538,64.1217147 462.246758,61.0183577 464.742407,58.4244687 C467.238056,55.8305793 470.259062,53.7740264 473.805506,52.2547485 C477.351954,50.7354706 481.132898,49.9758432 485.148454,49.9758432 C490.439981,49.9758432 495.159128,51.2635047 499.306033,53.838866 C503.452937,56.4142274 506.605288,59.8140242 508.763178,64.0383577 C510.921072,68.2626915 512,72.913095 512,77.9897064 C512,80.3983178 511.737307,82.1213757 511.211907,83.1589315 C510.686507,84.1964874 509.616956,84.715257 508.003231,84.715257 L471.807123,84.715257 C472.557694,88.4208131 474.321508,91.2740483 477.09862,93.2750486 C479.875736,95.276049 483.47842,96.2765342 487.906792,96.2765342 C492.185046,96.2765342 496.181777,94.9981363 499.897104,92.441303 C500.872846,91.8113583 501.717227,91.8484135 502.430271,92.5524692 L507.552888,97.4437783 C508.34099,98.259001 508.303463,99.0927384 507.440305,99.9450163 C504.700723,102.650072 501.520223,104.752944 497.898718,106.253694 C494.277212,107.754444 490.458742,108.504808 486.443186,108.504808 C482.127401,108.504808 478.102525,107.745181 474.368432,106.225902 C470.634343,104.706624 467.481988,102.640808 464.911282,100.028391 C462.340576,97.4159738 460.32345,94.3126173 458.859834,90.7182277 C457.396223,87.1238385 456.664427,83.2886458 456.664427,79.2125342 Z M471.581952,74.877055 L498.546081,74.877055 C498.058212,71.0603323 496.594618,68.0774046 494.155265,65.928182 C491.715908,63.7789594 488.751198,62.7043645 485.261042,62.7043645 C481.733355,62.7043645 478.731119,63.7696958 476.254231,65.9003904 C473.777351,68.0310854 472.219939,71.023277 471.581952,74.877055 Z M46.2046058,129.05356 L25.9134315,132.207906 C23.5526845,132.663178 21.2651049,131.142778 20.8039794,128.811997 C20.6951111,128.261718 20.6962943,127.695728 20.8074626,127.145897 L23.1759346,116.190397 C8.98077619,104.060773 0,86.141088 0,66.1502673 C0,29.6164835 29.9945215,0 66.9946387,0 C103.994756,0 133.989277,29.6164835 133.989277,66.1502673 C133.989277,102.684051 103.994756,132.300535 66.9946387,132.300535 C59.7372784,132.300535 52.7494411,131.161112 46.2046058,129.05356 Z M73.3170371,60.4523077 L83.3244497,41.7402945 C83.6165061,41.1942027 83.76916,40.5859784 83.76916,39.9684215 C83.76916,37.8727934 82.0486334,36.1739511 79.9262554,36.1739511 L55.5799598,36.1739511 C53.7526445,36.1739511 52.1780385,37.4444832 51.8140614,39.2126126 L45.9356691,67.7686762 C45.8848013,68.0157812 45.8586629,68.2672772 45.8586629,68.5194348 C45.8558415,70.6150608 47.5740768,72.3161631 49.6964527,72.3189521 L56.8361769,72.328336 L58.0873891,93.313866 C58.1530375,94.4149312 58.7006482,95.433301 59.5876157,96.1037783 C61.2728403,97.3776745 63.6848639,97.061446 64.9750207,95.3974612 L87.3390505,66.5533716 C87.8524065,65.8912689 88.1305859,65.0806328 88.1305859,64.2467784 C88.1305859,62.1511499 86.4100588,60.4523077 84.2876813,60.4523077 L73.3170371,60.4523077 Z" fill="#5146F9"></path>
    </g>
</svg>

<svg xmlns="http://www.w3.org/2000/svg" viewBox="0 0 512 132.301">
  <path fill="#5146f9" d="M166.645 38.248c-1.614-1.63-2.42-3.595-2.42-5.892s.806-4.261 2.42-5.892c1.614-1.63 3.603-2.445 5.967-2.445 2.29 0 4.25.815 5.883 2.445 1.632 1.63 2.449 3.595 2.449 5.892s-.817 4.252-2.45 5.864c-1.632 1.612-3.593 2.418-5.882 2.418-2.364 0-4.353-.797-5.967-2.39zm-1.632 67.033v-52.36c0-.481.169-.889.506-1.222.338-.334.75-.5 1.239-.5h11.765c.525 0 .948.166 1.267.5.319.333.478.741.478 1.223v52.359c0 .482-.16.89-.478 1.223-.32.333-.742.5-1.267.5h-11.765c-.488 0-.9-.167-1.239-.5a1.653 1.653 0 0 1-.506-1.223zm23.361-43.466v-8.893c0-.482.16-.89.479-1.223.319-.334.74-.5 1.266-.5h8.05V35.858c0-.519.16-.936.479-1.25.319-.316.74-.473 1.266-.473h11.765c.488 0 .9.157 1.239.472.337.315.506.732.506 1.25V51.2h8.05c.488 0 .9.166 1.239.5.337.333.506.741.506 1.223v8.893c0 .482-.169.89-.506 1.223-.338.333-.751.5-1.239.5h-8.05v41.743c0 .482-.169.89-.506 1.223-.338.333-.75.5-1.239.5h-11.765c-.525 0-.947-.167-1.266-.5a1.703 1.703 0 0 1-.479-1.223V63.538h-8.05c-.525 0-.947-.167-1.266-.5a1.703 1.703 0 0 1-.479-1.223zm40.981 37.352c-.3-.334-.44-.686-.422-1.056.019-.37.16-.778.422-1.223l4.504-6.28c.6-.78 1.444-.742 2.533.11 5.329 3.41 10.02 5.114 14.073 5.114 2.101 0 3.837-.37 5.207-1.112 1.37-.74 2.055-1.927 2.055-3.557 0-1.038-.394-1.973-1.183-2.807-.788-.834-1.82-1.529-3.096-2.084a90.442 90.442 0 0 0-4.362-1.751 121.57 121.57 0 0 0-5.01-1.751 26.143 26.143 0 0 1-5.01-2.251c-1.633-.945-3.087-1.983-4.363-3.113-1.276-1.13-2.308-2.594-3.096-4.391-.788-1.797-1.182-3.826-1.182-6.086 0-5.151 1.932-9.264 5.798-12.34 3.865-3.075 8.462-4.613 13.791-4.613 3.678 0 7.243.74 10.696 2.223 3.453 1.482 6.342 3.557 8.67 6.225.637.742.6 1.538-.113 2.39l-4.391 5.67c-.6.778-1.445.741-2.533-.111-2.515-1.594-4.513-2.714-5.996-3.363-1.482-.648-3.161-.973-5.038-.973-1.801 0-3.293.445-4.475 1.334-1.182.89-1.773 2.038-1.773 3.447 0 1.222.506 2.27 1.52 3.14 1.013.87 2.326 1.593 3.94 2.168 1.614.574 3.396 1.148 5.348 1.723a45.345 45.345 0 0 1 5.826 2.168 28.284 28.284 0 0 1 5.32 3.112c1.614 1.204 2.927 2.853 3.94 4.947 1.014 2.094 1.52 4.53 1.52 7.31 0 3.445-1.088 6.502-3.265 9.17-2.176 2.668-4.878 4.66-8.106 5.976-3.227 1.315-6.624 1.973-10.189 1.973-4.503 0-8.66-.908-12.469-2.724-3.809-1.815-6.84-4.02-9.09-6.614zm52.915-5.17c-2.327-4.483-3.49-9.411-3.49-14.784 0-5.374 1.173-10.293 3.518-14.758 2.346-4.465 5.61-7.994 9.795-10.588 4.185-2.594 8.866-3.891 14.045-3.891 6.568 0 12.29 2.723 17.17 8.17l.337-5.224c.113-1.149.694-1.723 1.745-1.723h10.583c.488 0 .9.166 1.239.5.337.333.506.741.506 1.223v52.359c0 .482-.169.89-.506 1.223-.338.333-.75.5-1.239.5H325.39c-1.05 0-1.632-.574-1.745-1.723l-.45-4.78c-4.616 5.336-10.302 8.004-17.057 8.004-5.179 0-9.86-1.306-14.045-3.919-4.184-2.612-7.459-6.142-9.823-10.588zm11.202-14.896c0 4.521 1.37 8.273 4.11 11.256 2.74 2.983 6.21 4.474 10.414 4.474 4.09 0 7.515-1.547 10.273-4.64 2.759-3.095 4.138-6.791 4.138-11.09 0-4.261-1.38-7.902-4.138-10.922-2.758-3.02-6.183-4.53-10.273-4.53-4.203 0-7.675 1.464-10.414 4.391-2.74 2.928-4.11 6.615-4.11 11.061zm54.604 26.18v-79.65c0-.52.169-.936.507-1.251.337-.315.75-.473 1.238-.473h11.765c.488 0 .892.158 1.21.473.32.315.48.732.48 1.25v79.651c0 .519-.16.936-.48 1.25-.318.316-.722.473-1.21.473h-11.765c-.488 0-.9-.167-1.238-.5a1.653 1.653 0 0 1-.507-1.223zm27.527-67.033c-1.614-1.63-2.42-3.595-2.42-5.892s.806-4.261 2.42-5.892c1.614-1.63 3.603-2.445 5.967-2.445 2.29 0 4.25.815 5.883 2.445 1.632 1.63 2.448 3.595 2.448 5.892s-.816 4.252-2.448 5.864c-1.633 1.612-3.594 2.418-5.883 2.418-2.364 0-4.353-.797-5.967-2.39zm-1.632 67.033v-52.36c0-.481.169-.889.506-1.222.338-.334.75-.5 1.239-.5h11.765c.525 0 .947.166 1.266.5.32.333.479.741.479 1.223v52.359c0 .482-.16.89-.479 1.223-.319.333-.74.5-1.266.5h-11.765c-.488 0-.9-.167-1.239-.5a1.653 1.653 0 0 1-.506-1.223zm23.023-52.137c-.112-.333-.169-.611-.169-.834 0-.74.526-1.111 1.577-1.111h11.877c1.014 0 1.69.463 2.027 1.39l13.848 36.906 13.735-36.907c.338-.926 1.032-1.39 2.083-1.39h11.878c1.013 0 1.52.371 1.52 1.112 0 .26-.057.538-.17.834l-21.053 52.47c-.337.927-1.032 1.39-2.082 1.39h-11.766c-1.05 0-1.745-.463-2.082-1.39zm59.67 26.069c0-4.04.723-7.865 2.168-11.478 1.445-3.613 3.415-6.717 5.91-9.31 2.496-2.594 5.517-4.651 9.064-6.17 3.546-1.52 7.327-2.28 11.342-2.28 5.292 0 10.011 1.289 14.158 3.864s7.3 5.975 9.457 10.2c2.158 4.224 3.237 8.874 3.237 13.95 0 2.41-.263 4.132-.788 5.17-.525 1.037-1.595 1.556-3.209 1.556h-36.196c.75 3.706 2.515 6.559 5.292 8.56 2.777 2.001 6.38 3.002 10.808 3.002 4.278 0 8.275-1.279 11.99-3.836.976-.63 1.82-.593 2.533.111l5.123 4.892c.788.815.75 1.649-.113 2.501-2.74 2.705-5.92 4.808-9.541 6.309-3.622 1.5-7.44 2.25-11.456 2.25-4.316 0-8.34-.759-12.075-2.278-3.734-1.52-6.886-3.585-9.457-6.198-2.57-2.612-4.588-5.715-6.051-9.31-1.464-3.594-2.196-7.43-2.196-11.505zm14.918-4.336h26.964c-.488-3.817-1.951-6.8-4.39-8.949-2.44-2.149-5.405-3.224-8.895-3.224-3.528 0-6.53 1.066-9.007 3.196-2.477 2.131-4.034 5.123-4.672 8.977zM46.205 129.054l-20.292 3.154c-2.36.455-4.648-1.065-5.109-3.396a4.246 4.246 0 0 1 .003-1.666l2.369-10.956C8.981 104.06 0 86.141 0 66.15 0 29.616 29.995 0 66.995 0s66.994 29.616 66.994 66.15c0 36.534-29.994 66.15-66.994 66.15a67.722 67.722 0 0 1-20.79-3.246zm27.112-68.602L83.324 41.74a3.756 3.756 0 0 0 .445-1.772c0-2.095-1.72-3.794-3.843-3.794H55.58c-1.827 0-3.402 1.27-3.766 3.039l-5.878 28.556c-.051.247-.077.498-.077.75-.003 2.096 1.715 3.797 3.837 3.8l7.14.01 1.251 20.985a3.78 3.78 0 0 0 1.5 2.79c1.686 1.274 4.098.957 5.388-.707l22.364-28.844a3.764 3.764 0 0 0 .792-2.306c0-2.096-1.72-3.795-3.843-3.795z"/>
</svg>
